X:1
T:We Will Journey On
T:We Will Journey On
T:Robert Lowry
T:Frances Jane (Fanny) Crosby, 1875
T:Public Domain Courtesy of the Cyber Hymnal™
T:Public Domain Courtesy of the Cyber Hymnal™
C:Robert Lowry
Z:Public Domain
Z:Courtesy of the Cyber Hymnal™
%%score ( 1 2 ) ( 3 4 )
L:1/8
Q:1/4=97
M:6/8
K:F
V:1 treble 
V:2 treble 
V:3 bass 
V:4 bass 
V:1
 [CF][CF][CF] [CF][CG][FA] | [Fc]2 [Fc] (AG)F | [EG]2 [EG] [Ec]2 [GB] | (A3 c3) | %4
w: 1.~Bright- er and bright- er the|way is grow- * ing—|We will jour- ney|on; *|
w: 2.~Bright- er and bright- er our|hope is shin- * ing—|We will jour- ney|on; *|
w: 3.~Firm to the arm of the|Sav- ior cling- * ing—|We will jour- ney|on; *|
w: 4.~Near- er the man- sions with|beau- ty glow- * ing—|We will jour- ney|on; *|
 [CF][CF][CF] [CF][CG][FA] | [Ac]2 [Ac] (AG)F | [EG]2 [Ec] ([D=B][Ec])[Fd] | [Ec]6 | %8
w: Pur- er and clear- er the|streams are flow- * ing—|We will jour- * ney|on;|
w: Clos- er and clos- er our|hearts are twin- * ing—|We will jour- * ney|on;|
w: Sweet- er and sweet- er our|songs are ring- * ing—|We will jour- * ney|on;|
w: Near- er the flow- ers im-|mor- tal grow- * ing—|We will jour- * ney|on;|
 [GB][FA][EG] [EG]2 [GB] | [FA]2 [GB] [FA]3 | [EG][FA][GB] [GB]2 [EG] | [FA]2 [Fc] [Fc]3 | %12
w: Streams that in peace- ful|mur- murs glide,|Fed by a foun- tain|deep and wide—|
w: On- ly a while we|pause to rest|Un- der the cross that|Je- sus blessed;|
w: What if a pass- ing|cloud a- rise?|What if its gloom should|veil our skies?|
w: Near- er the tree of|life so fair,|Near- er, the heav’n- ly|fruit to share,|
 [Fd][Fd][Fd] [Fc]2 [FA] | [EG]2 [EG] [FA]3 | F2 F [EG]2 [EG] | (A2 c d3) | [Fc]2 [FA] (GF)[CG] | %17
w: Cheered by their voice on|ev- ery side,|We will jour- ney|on, * *|we will jour- * ney|
w: Wear- ing His name on|ev- ery breast,|We will jour- ney|on, * *|we will jour- * ney|
w: Touched by His hand, it|fades, it dies—|We will jour- ney|on, * *|we will jour- * ney|
w: Glo- ry to God! we’ll|soon be there—|We will jour- ney|on, * *|we will jour- * ney|
 [CF]6 |] %18
w: on.|
w: on.|
w: on.|
w: on.|
V:2
 x6 | x3 F2 F | x6 | F6 | x6 | x3 F2 F | x6 | x6 | x6 | x6 | x6 | x6 | x6 | x6 | F2 F x3 | F6 | %16
 x3 C2 x | x6 |] %18
V:3
 [F,A,][F,A,][F,A,] [F,A,][F,B,][F,C] | [F,A,]2 [F,A,] (CB,)[F,A,] | [C,C]2 [C,C] [C,C]2 [C,C] | %3
 (C3 A,3) | [F,A,][F,A,][F,A,] [F,A,][F,B,][F,C] | [F,C]2 [F,C] (CB,)[F,A,] | %6
 [C,C]2 [C,G,] G,2 G, | [C,G,]6 | [C,C][C,C][C,C] [C,C]2 [C,C] | [F,C]2 [F,C] [F,C]3 | %10
 [C,C][C,C][C,C] [C,C]2 [C,C] | [F,C]2 [F,A,] [F,A,]3 | [B,,B,][B,,B,][B,,B,] [F,A,]2 [F,C] | %13
 [C,C]2 [C,C] [F,C]3 | [A,,C]2 [A,,C] [C,C]2 [C,C] | ([F,C]2 [F,A,] [B,,B,]3) | %16
 [C,A,]2 [C,C] (B,A,)[C,B,] | [F,A,]6 |] %18
V:4
 x6 | x3 F,2 x | x6 | F,6 | x6 | x3 F,2 x | x3 G,2 G, | x6 | x6 | x6 | x6 | x6 | x6 | x6 | x6 | %15
 x6 | x3 C,2 x | x6 |] %18

